X:1
T:Title
%%score 1 2 3
L:1/8
M:4/2
K:F
V:1 treble nm="Part_1"
V:2 treble nm="Part_2"
V:3 bass nm="Part_3"
V:1
 c6 A2 A4 z4 |[M:3/2] d6 =B2 B4 |[M:2/2] z2 c2 d2 dc | B2 B2 A3 A | %4
w: Do- mi- ne|Do- mi- ne|in tu- a mi-|e- ri- cor- di-|
[M:4/2] A4 AA/A/AA AG/A/ =B2 B2 BB/B/ |[M:2/2] BBBA/=B/ c2 A2 |[M:3/2] c6 B2 A4 | %7
w: a li- be- ra- me a lin- gua do- lo- sa li- be- ra|me a lin- gua do- lo- sa|li- be- ra|
[M:6/2] G8 z4 d6 c2 B4 |[M:3/2] A8 z4 |[M:2/2] z2 A2 B>ABc | d2 _ed c4 | B2 d3 cB>B | %12
w: me li- be- ra|me|a lin- * * *|* gua do- lo-|sa et a la- bi-|
 AA/B<cG/ AcAF |[M:3/2] G2 F2 z4 z2 z c |[M:2/2] AF G2 F2 z2 |[M:6/2] A6 G2 F4 E8 z4 | %16
w: is o- pe- ran- ti- um i- ni- qui-|ta- tem i-|ni- qui ta- tem|li- be- ra me|
 G6 F2 E4 D12 |[M:3/2] F6 A2 G4 |[M:2/2] A2 F2 G2 Ac | =B c2 B c2 dd | d2 cc B4 | A4 z4 | %22
w: i- be- ra me|li- be- ra|me a vi- ro i-|ni- * * quo et a|lin- gua in- iu-|sta|
[M:3/2] z4 z G/G/ G3 F/E/ D2 |[M:2/2] C4 z4 |[M:6/2] F6 F2 G4 A8 z4 |[M:3/2] z4 d3 c BdB>B | %26
w: et a lin- gua in- iu-|sta|e- ru- e me|quo- ni- am pro- tec- tor|
 BG A2 G4 z dB>B |[M:2/2] BG A2 G4 |[M:4/8] z4 |[M:6/2] c6 A2 B4 G2 A4 F2 G4 | F8 z4 z12 | %31
w: me- us es tu pro- tec- tor|me- us es tu||con- fun- dan- tur con- fun- dan-|tur|
 A4 A2 B2 G4 F8 z4 |[M:3/2] z4 z A/B/cc c2 AA | A3 c/c/ A2 FF GG/G/ A2 |[M:2/2] z2 z F GG/G/ A2 | %35
w: et e- ru- be- scant|i- ni- mi- ci me- i a|fa- ci\-e * tu- a et li- be- ra me|et li- be- ra me|
[M:4/8] z2 c2 |[M:6/2] d6 d2 c4 B6 B2 A2 d2 |[M:3/2] c6 A2 G4 |[M:2/2] A4 z2 c2 | B>B A2 d3 d | %40
w: et|li- be- ra li- be- ra et|li- be- ra|me et|li- be- ra li- be-|
[M:4/2] c2 c3 A G2 A8 |] %41
w: ra li- be- ra me|
V:2
 z4 c6 A2 A4 |[M:3/2] z4 d6 =B2 |[M:2/2] =B2 A2 _B2 BA | G2 G2 ^F3 F | %4
w: Do- mi- ne|Do- mi-|ne in tu- a mi-|se- ri- cor- di-|
[M:4/2] ^F4 FF/F/FF FE/F/ G2 G2 GG/G/ |[M:2/2] GGG^F/G/ E2 =F2 |[M:3/2] z12 | %7
w: a li- be- ra me a lin- gua do- lo- sa li- be- ra|me a lin- gua do- lo- sa||
[M:6/2] G6 F2 E4 D8 z4 |[M:3/2] A6 G2 F4 |[M:2/2] E2 ^F2 G>FGA | B2 cB B A/G/ A2 | B2 B3 AG>G | %12
w: li- be- ra- me|li- be- ra|me a lin- * * *|* gua do- lo- * * *|sa et a la- bi-|
 ^FF/G<EE/ =F4 |[M:3/2] z2 z A/B/ c>GAc AF G2 |[M:2/2] F2 z c AF G2 |[M:6/2] F8 z4 c6 B2 A4 | %16
w: is o- pe- ran- ti- um|o- pe- ran- ti- um i- ni- qui- ta-|tem i- ni- qui- ta|tem li- be- ra|
 G8 z4 d6 c2 B4 |[M:3/2] A2 F4 F2 E4 |[M:2/2] F4 z4 | z8 | z8 | z2 AA A2 GG |[M:3/2] F4 E4 z4 | %23
w: me li- be- ra|me li- be- ra|me|||et a li- gua in-|iu- sta|
[M:2/2] z c/c/ c3 B/A/ G2 |[M:6/2] F8 z4 F6 F2 G4 |[M:3/2] A4 B3 A G4 | z2 z d B>BBG A2 G2 | %27
w: et a lin- gua in- iu-|sta e- ru- e|me quo- ni- am|pro- tec- tor me- us es tu|
[M:2/2] z2 z d B>BBG |[M:4/8] A2 G2 |[M:6/2] z12 z12 | c6 A2 B4 G2 A4 F2 G4 | F8 z4 A4 A2 B2 G4 | %32
w: pro- tec- tor me- us|es tu||con- fun- dan- tur con- fun- dan-|tur et e- ru- be-|
[M:3/2] FA/B/cc c2 AA A3 c/c/ | A2 FA c>B A2 G2 z F |[M:2/2] GG/G/ A2 z4 |[M:4/8] z2 A2 | %36
w: scant i- * ni\-mi\-ci * me- i a fa- ci\-e *|tu- a et li- be- ra me et|li- be- ra me|et|
[M:6/2] B6 B2 A4 G6 G2 ^F2 G2 |[M:3/2] E6 F2 E4 |[M:2/2] F2 c2 B>B A2 | z4 B3 B | %40
w: li- be- ra li- be- ra et|li- be- ra|me et li- be- ra|li- be-|
[M:4/2] A2 A3 F2 E F8 |] %41
w: ra li- be- ra me|
V:3
 F,,6 F,,2 F,,4 F,,4 |[M:3/2] B,,6 G,,2 G,,4 |[M:2/2] G,,2 F,,2 B,,2 B,,F,, | G,,2 G,,2 D,3 D, | %4
[M:4/2] D,4 D,4 D,2 G,,2 G,,4 |[M:2/2] G,,4 C,2 F,,2 |[M:3/2] F,4 E,4 F,4 | %7
[M:6/2] C,4 =B,,4 C,4 B,,6 A,,2 G,,4 |[M:3/2] D,4 ^C,4 D,4 |[M:2/2] A,,2 D,2 G,,4 | %10
 G,,2 C,G,,/B,,/ F,,4 | B,,2 B,,3 F,,G,,>G,, | D,2 C,2 F,,F,,F,,F,, | %13
[M:3/2] C,2 F,,2 C,2 F,,2 F,,2 C,2 |[M:2/2] F,,2 C,2 F,,2 C,2 |[M:6/2] F,6 E,2 D,4 C,8 F,4 | %16
 C,6 D,2 A,,4 B,,6 A,,2 G,,4 |[M:3/2] F,,2 F,,4 F,,2 C,4 |[M:2/2] F,,2 F,2 E,2 F,A, | %19
 G,4 C,2 B,,B,, | B,,2 A,,A,, G,,4 | F,,2 F,F, F,2 E,E, |[M:3/2] D,4 C,3 B,,/A,,/ G,,4 | %23
[M:2/2] C,F,F,E,/D,/ C,4 |[M:6/2] F,,6 F,,2 C,4 F,,6 F,,2 C,4 |[M:3/2] F,,4 B,,3 F,, G,,4 | %26
 G,,2 D,2 G,,4 D,2 G,,2 |[M:2/2] G,,2 D,2 G,,4 |[M:4/8] D,2 G,,2 | %29
[M:6/2] F,,6 F,,2 B,,4 C,2 F,,4 F,,2 C,4 | F,,6 F,,2 B,,4 C,2 F,,4 F,,2 C,4 | %31
 F,,4 F,,2 B,,2 C,4 F,,4 F,,2 B,,2 C,4 |[M:3/2] F,,4 F,,2 F,,F,, F,,3 F,,/F,,/ | %33
 F,,2 F,,F,, F,,4 C,2 F,,2 |[M:2/2] C,2 F,,2 C,2 F,,2 |[M:4/8] z2 F,,2 | %36
[M:6/2] B,,6 B,,2 F,,4 G,,6 G,,2 D,2 =B,,2 |[M:3/2] C,6 F,,2 C,4 |[M:2/2] F,,2 F,,2 B,,>B,, F,,2 | %39
 B,,>B,, F,,2 B,,3 B,, |[M:4/2] F,,2 F,,3 F,, C,2 F,,8 |] %41

